_site/assets/section-head.svg

<svg xmlns="http://www.w3.org/2000/svg" xmlns:xlink="http://www.w3.org/1999/xlink" width="1668" height="214" version="1.1" viewBox="0 0 1668 214"><title>Group 6</title><desc>Created with Sketch.</desc><g id="screens-" fill="none" fill-rule="evenodd" stroke="none" stroke-width="1"><g id="Group-6" stroke="#FFEF2E" stroke-width="9" transform="translate(9.000000, 2.000000)"><path id="Line-Copy" stroke-linecap="square" d="M557.646099,71.5722073 L627.424823,125.359689"/><polyline id="Path-2-Copy" points="696.756 12 667 62.842 691.168 114.957"/><polyline id="Path-3-Copy" points="758.748 15 751 101.973 829.223 114.734"/><path id="Path-4-Copy" d="M811,48.4948892 C811,48.4948892 833.507475,25.4814289 902.874814,83.6006981"/><path id="Path-5-Copy" d="M913.381098,12 C913.381098,12 1019.70986,84.3596302 913,124.514721"/><polyline id="Path-6-Copy" points="1045.793 87.049 1005 22.439 1084.203 49.125 1062.879 0"/><path id="Path-7-Copy" d="M960.783353,137 C960.783353,137 987.848856,200.137259 935.005001,186.361816 C882.161145,172.586374 885.038306,130.763835 859,170.103084"/><path id="Path-8-Copy" d="M1013,128 C1013,128 1050.764,182.833548 1106.78283,196.398883"/><polyline id="Path-12-Copy" points="1168 101 1194.821 135.071 1232.746 101.637 1263.605 150.25"/><polyline id="Path-13-Copy" points="1238 45 1295.998 74.39 1353.967 52.463"/><path id="Path-14-Copy" d="M1379,70 C1379,70 1393.22933,104.810765 1426.78106,87.4053823"/><path id="Path-23-Copy" d="M740,151.470751 L810.081582,151.144415"/><polyline id="Path-31-Copy" points="441.55 97.332 395.76 147.728 383 85"/><path id="Path-32-Copy" d="M469.029458,129 L469.029458,193.962129"/><path id="Path-41-Copy" d="M341,17 C341,17 347.751233,54.3745212 386.852859,33.2900252 C425.954485,12.2055291 429.788176,37.7223962 429.788176,37.7223962"/><path id="Path-42-Copy" d="M533.120764,33 C533.120764,33 498.857311,41.0980737 515.989038,67.7370034 C533.120764,94.3759332 528.201828,97.8225878 510,103.403844"/><path id="Path-48-Copy" d="M327,98 L345.325496,142.728278"/><path id="Path-49-Copy" d="M248,112.338005 C248,112.338005 284.138655,106.175601 283.431984,146.475979"/><path id="Path-50-Copy" d="M149,124.888222 C149,124.888222 156.306474,87.2767712 224.068661,43"/><path id="Path-51-Copy" d="M59,35.6094408 L157.287855,29"/><polyline id="Path-53-Copy" points="51.829 75 0 112.126 64.105 140.708"/><path id="Path-54-Copy" d="M123.62519,71 C123.62519,71 63.2426684,86.876516 101.955625,135.42696"/><path id="Path-136-Copy" d="M1154.30865,54.2971133 C1154.30865,54.2971133 1111.75659,49.0406827 1115.19804,82.7464604"/><polyline id="Path-141-Copy" points="1512 21 1589.358 30.555 1584.322 117.738"/><path id="Path-143-Copy" d="M1440,52 C1440,52 1505.42757,102.688698 1532.45641,85.7924655"/><path id="Path-144-Copy" d="M1657.90977,128.188539 C1657.90977,128.188539 1617.27086,123.858091 1619.05721,156.704872"/><polyline id="Path-200-Copy" points="157 223.604 168.839 153.867 268.48 160.648" transform="translate(212.739945, 188.735418) rotate(45.000000) translate(-212.739945, -188.735418)"/><polyline id="Path-201-Copy" points="1301.28 120.089 1355.481 102 1325.036 171.572 1396.428 135.982"/></g></g></svg>

<?xml version="1.0" encoding="utf-8"?>
<!-- Generator: Adobe Illustrator 23.1.0, SVG Export Plug-In . SVG Version: 6.00 Build 0)  -->
<svg version="1.1" id="Layer_1" xmlns="http://www.w3.org/2000/svg" xmlns:xlink="http://www.w3.org/1999/xlink" x="0px" y="0px"
	 viewBox="0 0 1668 214" style="enable-background:new 0 0 1668 214;" xml:space="preserve">
<style type="text/css">
	.st0{fill:none;stroke:#FF0DBF;stroke-width:9;stroke-linecap:square;}
	.st1{fill:none;stroke:#FF0DBF;stroke-width:9;}
</style>
<title>Group 6</title>
<desc>Created with Sketch.</desc>
<g id="screens-">
	<g id="Group-6" transform="translate(9.000000, 2.000000)">
		<path id="Line-Copy" class="st0" d="M557.6,71.6l69.8,53.8"/>
		<polyline id="Path-2-Copy" class="st1" points="696.8,12 667,62.8 691.2,115 		"/>
		<polyline id="Path-3-Copy" class="st1" points="758.7,15 751,102 829.2,114.7 		"/>
		<path id="Path-4-Copy" class="st1" d="M811,48.5c0,0,22.5-23,91.9,35.1"/>
		<path id="Path-5-Copy" class="st1" d="M913.4,12c0,0,106.3,72.4-0.4,112.5"/>
		<polyline id="Path-6-Copy" class="st1" points="1045.8,87 1005,22.4 1084.2,49.1 1062.9,0 		"/>
		<path id="Path-7-Copy" class="st1" d="M960.8,137c0,0,27.1,63.1-25.8,49.4s-50-55.6-76-16.3"/>
		<path id="Path-8-Copy" class="st1" d="M1013,128c0,0,37.8,54.8,93.8,68.4"/>
		<polyline id="Path-12-Copy" class="st1" points="1168,101 1194.8,135.1 1232.7,101.6 1263.6,150.3 		"/>
		<polyline id="Path-13-Copy" class="st1" points="1238,45 1296,74.4 1354,52.5 		"/>
		<path id="Path-14-Copy" class="st1" d="M1379,70c0,0,14.2,34.8,47.8,17.4"/>
		<path id="Path-23-Copy" class="st1" d="M740,151.5l70.1-0.3"/>
		<polyline id="Path-31-Copy" class="st1" points="441.5,97.3 395.8,147.7 383,85 		"/>
		<path id="Path-32-Copy" class="st1" d="M469,129v65"/>
		<path id="Path-41-Copy" class="st1" d="M341,17c0,0,6.8,37.4,45.9,16.3s42.9,4.4,42.9,4.4"/>
		<path id="Path-42-Copy" class="st1" d="M533.1,33c0,0-34.3,8.1-17.1,34.7c17.1,26.6,12.2,30.1-6,35.7"/>
		<path id="Path-48-Copy" class="st1" d="M327,98l18.3,44.7"/>
		<path id="Path-49-Copy" class="st1" d="M248,112.3c0,0,36.1-6.2,35.4,34.1"/>
		<path id="Path-50-Copy" class="st1" d="M149,124.9c0,0,7.3-37.6,75.1-81.9"/>
		<path id="Path-51-Copy" class="st1" d="M59,35.6l98.3-6.6"/>
		<polyline id="Path-53-Copy" class="st1" points="51.8,75 0,112.1 64.1,140.7 		"/>
		<path id="Path-54-Copy" class="st1" d="M123.6,71c0,0-60.4,15.9-21.7,64.4"/>
		<path id="Path-136-Copy" class="st1" d="M1154.3,54.3c0,0-42.6-5.3-39.1,28.4"/>
		<polyline id="Path-141-Copy" class="st1" points="1512,21 1589.4,30.6 1584.3,117.7 		"/>
		<path id="Path-143-Copy" class="st1" d="M1440,52c0,0,65.4,50.7,92.5,33.8"/>
		<path id="Path-144-Copy" class="st1" d="M1657.9,128.2c0,0-40.6-4.3-38.9,28.5"/>
		<polyline id="Path-200-Copy" class="st1" points="148.7,174 206.4,133 272,208.3 		"/>
		<polyline id="Path-201-Copy" class="st1" points="1301.3,120.1 1355.5,102 1325,171.6 1396.4,136 		"/>
	</g>
</g>
</svg>
